storage/app/icons/phosphoricons/light/browsers-light.svg

<svg xmlns="http://www.w3.org/2000/svg" fill="currentColor" viewBox="0 0 256 256"><path d="M216 42H72a14 14 0 0 0-14 14v18H40a14 14 0 0 0-14 14v112a14 14 0 0 0 14 14h144a14 14 0 0 0 14-14v-18h18a14 14 0 0 0 14-14V56a14 14 0 0 0-14-14M40 86h144a2 2 0 0 1 2 2v18H38V88a2 2 0 0 1 2-2m146 114a2 2 0 0 1-2 2H40a2 2 0 0 1-2-2v-82h148Zm32-32a2 2 0 0 1-2 2h-18V88a14 14 0 0 0-14-14H70V56a2 2 0 0 1 2-2h144a2 2 0 0 1 2 2Z"/></svg>

<svg xmlns="http://www.w3.org/2000/svg" viewBox="0 0 256 256" fill="currentColor"><path d="M216,42H72A14,14,0,0,0,58,56V74H40A14,14,0,0,0,26,88V200a14,14,0,0,0,14,14H184a14,14,0,0,0,14-14V182h18a14,14,0,0,0,14-14V56A14,14,0,0,0,216,42ZM40,86H184a2,2,0,0,1,2,2v18H38V88A2,2,0,0,1,40,86ZM186,200a2,2,0,0,1-2,2H40a2,2,0,0,1-2-2V118H186Zm32-32a2,2,0,0,1-2,2H198V88a14,14,0,0,0-14-14H70V56a2,2,0,0,1,2-2H216a2,2,0,0,1,2,2Z"/></svg>
